poi/svg/1504.svg

<?xml version="1.0" encoding="UTF-8" standalone="no"?>
<svg
   xmlns:dc="http://purl.org/dc/elements/1.1/"
   xmlns:cc="http://creativecommons.org/ns#"
   xmlns:rdf="http://www.w3.org/1999/02/22-rdf-syntax-ns#"
   xmlns:svg="http://www.w3.org/2000/svg"
   xmlns="http://www.w3.org/2000/svg"
   xmlns:sodipodi="http://sodipodi.sourceforge.net/DTD/sodipodi-0.dtd"
   xmlns:inkscape="http://www.inkscape.org/namespaces/inkscape"
   inkscape:version="1.0 (4035a4fb49, 2020-05-01)"
   sodipodi:docname="1504.svg"
   id="svg20"
   version="1.2"
   viewBox="0 0 42.519639 42.519639"
   height="14.999999mm"
   width="14.999999mm">
  <metadata
     id="metadata24">
    <rdf:RDF>
      <cc:Work
         rdf:about="">
        <dc:format>image/svg+xml</dc:format>
        <dc:type
           rdf:resource="http://purl.org/dc/dcmitype/StillImage" />
        <dc:title>Qt SVG Document</dc:title>
      </cc:Work>
    </rdf:RDF>
  </metadata>
  <sodipodi:namedview
     inkscape:current-layer="svg20"
     inkscape:window-maximized="0"
     inkscape:window-y="0"
     inkscape:window-x="0"
     inkscape:cy="28.346482"
     inkscape:cx="28.346482"
     inkscape:zoom="5.8410537"
     showgrid="false"
     id="namedview22"
     inkscape:window-height="480"
     inkscape:window-width="1034"
     inkscape:pageshadow="2"
     inkscape:pageopacity="0"
     guidetolerance="10"
     gridtolerance="10"
     objecttolerance="10"
     borderopacity="1"
     bordercolor="#666666"
     pagecolor="#ffffff" />
  <title
     id="title2">Qt SVG Document</title>
  <desc
     id="desc4">Generated with Qt</desc>
  <defs
     id="defs6" />
  <g
     transform="translate(5.25984,5.25984)"
     id="g18"
     stroke-linejoin="bevel"
     stroke-linecap="square"
     fill-rule="evenodd"
     stroke-width="1"
     stroke="#000000"
     fill="none">
    <g
       id="g10"
       font-style="normal"
       font-weight="400"
       font-size="7.8px"
       font-family="'MS Shell Dlg 2'"
       stroke="none"
       fill-opacity="1"
       fill="#4c62ad">
      <path
         id="path8"
         d="M 37.2598,16 C 37.2598,27.7415 27.7415,37.2598 16,37.2598 4.25851,37.2598 -5.25984,27.7415 -5.25984,16 -5.25984,4.25851 4.25851,-5.25984 16,-5.25984 27.7415,-5.25984 37.2598,4.25851 37.2598,16"
         fill-rule="evenodd"
         vector-effect="non-scaling-stroke" />
    </g>
    <g
       id="g14"
       font-style="normal"
       font-weight="400"
       font-size="7.8px"
       font-family="'MS Shell Dlg 2'"
       transform="translate(16,13.1654)"
       stroke="none"
       fill-opacity="0.94902"
       fill="#ffffff">
      <path
         id="path12"
         d="M -0.680664,2.8501 6.41602,4.52979 C 6.19206,4.85173 5.9576,5.24715 5.71265,5.71606 5.46769,6.18498 5.22624,6.5944 4.98828,6.94434 4.82031,7.19629 4.51587,7.33976 4.07495,7.37476 3.63403,7.40975 3.09513,7.33976 2.45825,7.16479 1.82137,6.98983 1.125,6.73088 0.369141,6.38794 -0.386719,6.045 -1.16357,5.62858 -1.96143,5.13867 -2.77327,4.64876 -3.50114,4.13786 -4.14502,3.60596 -4.7889,3.07406 -5.3243,2.56665 -5.75122,2.08374 -6.17814,1.60083 -6.47909,1.15641 -6.65405,0.750488 -6.82902,0.344564 -6.84652,0.0296224 -6.70654,-0.194336 c 0.23795,-0.405924 0.5004,-0.822344 0.78735,-1.249264 0.28695,-0.42692 0.50041,-0.80135 0.64038,-1.12329 L -0.680664,2.8501 M 12.001,4.4458 11.5811,5.05469 11.3921,4.9707 10.4053,9.04395 c 0.3219,0.18196 0.4409,0.44091 0.3569,0.77685 0,0.11198 -0.0525,0.2065 -0.1575,0.2834 -0.1049,0.077 -0.2274,0.1155 -0.3674,0.1155 -0.056,0.4759 -0.112,0.9728 -0.168,1.4907 -0.056,0.518 -0.11194,0.8959 -0.16793,1.1338 -0.05599,0.224 -0.09798,0.406 -0.12598,0.5459 -0.02799,0.14 -0.06649,0.2485 -0.11548,0.3255 -0.04899,0.077 -0.10848,0.1225 -0.17846,0.1365 -0.06999,0.0139 -0.18897,-0.007 -0.35694,-0.063 -0.32194,-0.056 -0.46891,-0.1505 -0.44092,-0.2835 0.028,-0.133 0.11898,-0.4164 0.27295,-0.8503 0.05599,-0.224 0.16797,-0.5809 0.33594,-1.0708 0.16797,-0.4899 0.34294,-0.9728 0.5249,-1.4488 C 9.66341,10.0658 9.56543,9.97477 9.52344,9.86279 9.48145,9.75081 9.48844,9.62484 9.54443,9.48486 9.61442,9.34489 9.6984,9.22241 9.79639,9.11743 9.89437,9.01245 10.0133,8.95996 10.1533,8.95996 L 11.0981,4.88672 0.138184,1.7373 -7.9873,-6.95508 -7.65137,-7.54297 3.87549,-4.22559 12.001,4.4458 M 0.012207,9.8208 c 0.0559896,0.21 0.118978,0.4409 0.188965,0.6929 0.069987,0.2519 0.132975,0.4969 0.188965,0.7348 0.083984,0.308 -0.167969,0.6579 -0.75586,1.0498 -0.58789,0.392 -1.350747,0.7139 -2.288577,0.9659 -0.97981,0.3219 -1.81966,0.4654 -2.51953,0.4304 -0.69987,-0.035 -1.0918,-0.2065 -1.17578,-0.5144 -0.08398,-0.168 -0.16447,-0.3885 -0.24145,-0.6614 -0.07699,-0.273 -0.14348,-0.5004 -0.19947,-0.6824 l 3.92627,0.189 2.876467,-2.2046 m 1.847653,-2.30957 0.16797,0.41992 -5.33301,3.23345 -5.94189,0.0839 -0.08398,2.1836 c 0.08398,0 0.15047,0.028 0.19946,0.084 0.04899,0.056 0.07348,0.119 0.07348,0.189 0,0.2239 -0.09098,0.3359 -0.27294,0.3359 0.05598,0.252 0.10148,0.5074 0.13647,0.7664 0.03499,0.2589 0.05249,0.4584 0.05249,0.5984 -0.06999,0.2379 -0.10498,0.3919 -0.10498,0.4619 0,0.07 -0.08398,0.105 -0.25195,0.105 -0.16797,0 -0.25196,-0.035 -0.25196,-0.105 0,-0.07 0.028,-0.224 0.08399,-0.4619 0,-0.14 0.014,-0.3395 0.04199,-0.5984 0.02799,-0.259 0.06999,-0.5144 0.12598,-0.7664 -0.16797,-0.084 -0.25196,-0.1959 -0.25196,-0.3359 0,-0.182 0.11198,-0.273 0.33594,-0.273 l 0.08399,-2.1836 H -9.49902 L -9.58301,10.8916 -4.33398,7.59521 1.85986,7.51123"
         fill-rule="evenodd"
         vector-effect="none" />
    </g>
    <g
       id="g16"
       font-style="normal"
       font-weight="400"
       font-size="7.8px"
       font-family="'MS Shell Dlg 2'"
       stroke="none"
       fill-opacity="1"
       fill="#4c62ad" />
  </g>
</svg>

<?xml version="1.0" encoding="UTF-8" standalone="no"?>
<svg width="11.2889mm" height="11.2889mm"
 viewBox="0 0 32 32"
 xmlns="http://www.w3.org/2000/svg" xmlns:xlink="http://www.w3.org/1999/xlink"  version="1.2" baseProfile="tiny">
<title>Qt SVG Document</title>
<desc>Generated with Qt</desc>
<defs>
</defs>
<g fill="none" stroke="black" stroke-width="1" fill-rule="evenodd" stroke-linecap="square" stroke-linejoin="bevel" >

<g fill="#4c62ad" fill-opacity="1" stroke="none" transform="matrix(1,0,0,1,0,0)"
font-family="MS Shell Dlg 2" font-size="7.8" font-weight="400" font-style="normal" 
>
<path vector-effect="non-scaling-stroke" fill-rule="evenodd" d="M37.2598,16 C37.2598,27.7415 27.7415,37.2598 16,37.2598 C4.25851,37.2598 -5.25984,27.7415 -5.25984,16 C-5.25984,4.25851 4.25851,-5.25984 16,-5.25984 C27.7415,-5.25984 37.2598,4.25851 37.2598,16 "/>
</g>

<g fill="#ffffff" fill-opacity="0.94902" stroke="none" transform="matrix(1,0,0,1,16,13.1654)"
font-family="MS Shell Dlg 2" font-size="7.8" font-weight="400" font-style="normal" 
>
<path vector-effect="none" fill-rule="evenodd" d="M-0.680664,2.8501 L6.41602,4.52979 C6.19206,4.85173 5.9576,5.24715 5.71265,5.71606 C5.46769,6.18498 5.22624,6.5944 4.98828,6.94434 C4.82031,7.19629 4.51587,7.33976 4.07495,7.37476 C3.63403,7.40975 3.09513,7.33976 2.45825,7.16479 C1.82137,6.98983 1.125,6.73088 0.369141,6.38794 C-0.386719,6.045 -1.16357,5.62858 -1.96143,5.13867 C-2.77327,4.64876 -3.50114,4.13786 -4.14502,3.60596 C-4.7889,3.07406 -5.3243,2.56665 -5.75122,2.08374 C-6.17814,1.60083 -6.47909,1.15641 -6.65405,0.750488 C-6.82902,0.344564 -6.84652,0.0296224 -6.70654,-0.194336 C-6.46859,-0.60026 -6.20614,-1.01668 -5.91919,-1.4436 C-5.63224,-1.87052 -5.41878,-2.24495 -5.27881,-2.56689 L-0.680664,2.8501 M12.001,4.4458 L11.5811,5.05469 L11.3921,4.9707 L10.4053,9.04395 C10.7272,9.22591 10.8462,9.48486 10.7622,9.8208 C10.7622,9.93278 10.7097,10.0273 10.6047,10.1042 C10.4998,10.1812 10.3773,10.2197 10.2373,10.2197 C10.1813,10.6956 10.1253,11.1925 10.0693,11.7104 C10.0133,12.2284 9.95736,12.6063 9.90137,12.8442 C9.84538,13.0682 9.80339,13.2502 9.77539,13.3901 C9.7474,13.5301 9.7089,13.6386 9.65991,13.7156 C9.61092,13.7926 9.55143,13.8381 9.48145,13.8521 C9.41146,13.866 9.29248,13.8451 9.12451,13.7891 C8.80257,13.7331 8.6556,13.6386 8.68359,13.5056 C8.71159,13.3726 8.80257,13.0892 8.95654,12.6553 C9.01253,12.4313 9.12451,12.0744 9.29248,11.5845 C9.46045,11.0946 9.63542,10.6117 9.81738,10.1357 C9.66341,10.0658 9.56543,9.97477 9.52344,9.86279 C9.48145,9.75081 9.48844,9.62484 9.54443,9.48486 C9.61442,9.34489 9.6984,9.22241 9.79639,9.11743 C9.89437,9.01245 10.0133,8.95996 10.1533,8.95996 L11.0981,4.88672 L0.138184,1.7373 L-7.9873,-6.95508 L-7.65137,-7.54297 L3.87549,-4.22559 L12.001,4.4458 M0.012207,9.8208 C0.0681966,10.0308 0.131185,10.2617 0.201172,10.5137 C0.271159,10.7656 0.334147,11.0106 0.390137,11.2485 C0.474121,11.5565 0.222168,11.9064 -0.365723,12.2983 C-0.953613,12.6903 -1.71647,13.0122 -2.6543,13.2642 C-3.63411,13.5861 -4.47396,13.7296 -5.17383,13.6946 C-5.8737,13.6596 -6.26563,13.4881 -6.34961,13.1802 C-6.43359,13.0122 -6.51408,12.7917 -6.59106,12.5188 C-6.66805,12.2458 -6.73454,12.0184 -6.79053,11.8364 L-2.86426,12.0254 L0.012207,9.8208 M1.85986,7.51123 L2.02783,7.93115 L-3.30518,11.1646 L-9.24707,11.2485 L-9.33105,13.4321 C-9.24707,13.4321 -9.18058,13.4601 -9.13159,13.5161 C-9.0826,13.5721 -9.05811,13.6351 -9.05811,13.7051 C-9.05811,13.929 -9.14909,14.041 -9.33105,14.041 C-9.27507,14.293 -9.22957,14.5484 -9.19458,14.8074 C-9.15959,15.0663 -9.14209,15.2658 -9.14209,15.4058 C-9.21208,15.6437 -9.24707,15.7977 -9.24707,15.8677 C-9.24707,15.9377 -9.33105,15.9727 -9.49902,15.9727 C-9.66699,15.9727 -9.75098,15.9377 -9.75098,15.8677 C-9.75098,15.7977 -9.72298,15.6437 -9.66699,15.4058 C-9.66699,15.2658 -9.65299,15.0663 -9.625,14.8074 C-9.59701,14.5484 -9.55501,14.293 -9.49902,14.041 C-9.66699,13.957 -9.75098,13.8451 -9.75098,13.7051 C-9.75098,13.5231 -9.639,13.4321 -9.41504,13.4321 L-9.33105,11.2485 L-9.49902,11.2485 L-9.58301,10.8916 L-4.33398,7.59521 L1.85986,7.51123"/>
</g>

<g fill="#4c62ad" fill-opacity="1" stroke="none" transform="matrix(1,0,0,1,0,0)"
font-family="MS Shell Dlg 2" font-size="7.8" font-weight="400" font-style="normal" 
>
</g>
</g>
</svg>
